dist/svg/device-an.svg

<!-- Generated by Trend Micro Style Portal -->
<svg version="1.1" xmlns="http://www.w3.org/2000/svg" width="16" height="16" viewBox="0 0 16 16">
  <title>device-an</title>
  <path fill="rgb(34,34,34)" d="M12 9v1h1l1.3 2h-12.6l1.3-2h4v-1h-5l-2 3v3c0 0.6 0.4 1 1 1h14c0.6 0 1-0.4 1-1v-3l-2-3h-2zM11 15h-1v-2h1v2zM14 15h-2v-2h2v2zM1.5 8c0.8 0 1.5-0.7 1.5-1.5l1.3-0.4c0.4 0.5 1 0.9 1.7 0.9 0.3 0 0.5-0.1 0.8-0.2l1.4 1.9c-0.1 0.3-0.2 0.5-0.2 0.8 0 0.8 0.7 1.5 1.5 1.5s1.5-0.7 1.5-1.5-0.7-1.5-1.5-1.5c-0.2 0-0.4 0-0.5 0.1l-1.4-1.9c0.1-0.1 0.2-0.2 0.2-0.4l5.2 0.9c0.1 0.8 0.8 1.3 1.5 1.3 0.8 0 1.5-0.7 1.5-1.5s-0.7-1.5-1.5-1.5c-0.6 0-1 0.3-1.3 0.8l-5.2-1c0-0.3-0.1-0.6-0.3-0.8l1.1-1.1c0.2 0 0.5 0.1 0.7 0.1 0.8 0 1.5-0.7 1.5-1.5s-0.7-1.5-1.5-1.5-1.5 0.7-1.5 1.5c0 0.2 0.1 0.5 0.1 0.6l-1.1 1.2c-0.3-0.2-0.6-0.3-1-0.3-1.1 0-2 0.9-2 2 0 0 0 0.1 0 0.1l-1.3 0.5c-0.3-0.4-0.7-0.6-1.2-0.6-0.8 0-1.5 0.7-1.5 1.5s0.7 1.5 1.5 1.5zM6 4c0.6 0 1 0.4 1 1s-0.4 1-1 1-1-0.4-1-1 0.4-1 1-1z"></path>
</svg>

<svg width="16" height="16" viewBox="0 0 16 16" fill="rgb(34, 34, 34)" xmlns="http://www.w3.org/2000/svg"><title>device-an</title><path d="M12 9V10H13L14.3 12H1.7L3 10H7V9H2L0 12V15C0 15.6 0.4 16 1 16H15C15.6 16 16 15.6 16 15V12L14 9H12ZM11 15H10V13H11V15ZM14 15H12V13H14V15ZM1.5 8C2.3 8 3 7.3 3 6.5L4.3 6.1C4.7 6.6 5.3 7 6 7C6.3 7 6.5 6.9 6.8 6.8L8.2 8.7C8.1 9 8 9.2 8 9.5C8 10.3 8.7 11 9.5 11C10.3 11 11 10.3 11 9.5C11 8.7 10.3 8 9.5 8C9.3 8 9.1 8 9 8.1L7.6 6.2C7.7 6.1 7.8 6 7.8 5.8L13 6.7C13.1 7.5 13.8 8 14.5 8C15.3 8 16 7.3 16 6.5C16 5.7 15.3 5 14.5 5C13.9 5 13.5 5.3 13.2 5.8L8 4.8C8 4.5 7.9 4.2 7.7 4L8.8 2.9C9 2.9 9.3 3 9.5 3C10.3 3 11 2.3 11 1.5C11 0.7 10.3 0 9.5 0C8.7 0 8 0.7 8 1.5C8 1.7 8.1 2 8.1 2.1L7 3.3C6.7 3.1 6.4 3 6 3C4.9 3 4 3.9 4 5V5.1L2.7 5.6C2.4 5.2 2 5 1.5 5C0.7 5 0 5.7 0 6.5C0 7.3 0.7 8 1.5 8ZM6 4C6.6 4 7 4.4 7 5C7 5.6 6.6 6 6 6C5.4 6 5 5.6 5 5C5 4.4 5.4 4 6 4Z" fill="rgb(34, 34, 34)" fill-opacity="1.00"/></svg>
